X:1
T:Pavane for a Dead Princess
T:Pavane for a Dead Princess
T:for String Orchestra
T:Maurice Ravel
C:Maurice Ravel
%%score 1 2 3 4
L:1/8
Q:1/4=55
M:4/4
K:G
V:1 treble nm="Violin I" snm="Vln. I"
V:2 treble nm="Violin II" snm="Vln. II"
V:3 alto nm="Viola" snm="Vla."
V:4 bass nm="Violoncello" snm="Vc."
V:1
"^\n"!mf!"^With Emotion\n" G4- GAFE | D2 EF- FE E2 | B4- BcAG | F2 GA- ABGF | E2 FG- GAFE | %5
 F4- F"^rit."AFE | !breath!F2 B4 B2 |"^a tempo" B4- BAdB | B2 A2 G2 A2 |!<(! E4- EDGF!<)! | %10
 !fermata!EB,DE F4 | E4 !fermata!F4 |[M:2/4] B,D FB |[M:4/4]!mf! f2 g2- gfga | d2 ^c6 | %15
 d2 e2- edef | B2 A2 F4 | A2 B2- BAB^c | F2 E2 z DEF |[M:2/4] E2 !fermata!D2 || %20
[M:4/4]!pp! d d2 d2 d2 (d | B) B2 B2 B2 B- | B B2 B2 B2 (B | G) G2 G z4 | F F2 F2 F2 F | %25
 D2 ^C2 z B,CD |[M:2/4] E2 !fermata!D2 |[M:4/4]!f! F2"_meno mosso" E3 DEF |[M:2/4] E2 !fermata!D2 | %29
[M:4/4]!mf! G4- GAFE | D2 EF- FE E2 | B4- BcAG | F2 GA- ABGF | E2 FG- GAFE | F8 | F2 z4 z2 | %36
!mp! E E2 E2 E G2 | E E2 E2 E2 E- | E z4 z2 z |[M:2/4] z4 |[M:4/4] z8 |!f! !fermata!B8 || %42
[K:Bb][Q:1/4=62]!mf! Bcdf- f2 =ed |!>(! =ec d2!mp! FAFD!>)! | %44
!<(! (3FAd !4!=e2!mf! z!<(! FAd!<)!!<)! | !4!=e4!>(! c3 c!>)! |!mf! _efgb- b2 ag | %47
!>(! af g2!mp! BdBG!>)! |!<(! (3Bdf a2!mf! z!<(! Bdf!<)!!<)! | a3!f!!>(! a f3 e!>)! | c3 B G4 | %51
[M:2/4]"_rit."!p! z2 !fermata!G2 |[M:4/4]!mf! Bcdf- f2 =ed |!>(! =ec d2!mp! FAFD!>)! | %54
!<(! (3FAd !4!=e2-!mf! e!<(!FAd!<)!!<)! | !4!=e3!f! e!>(! c3 c!>)! |!mf! _efgb- b2 ag | %57
!>(! af g2!mp! BdBG!>)! |!<(! (3Bdf a2-!mf! a!<(!Bdf!<)!!<)! | a3!f!!>(! a f3 e!>)! | %60
!>(! c3 B G2 =E2!>)! |[M:2/4]"_rit."!p! ^F2 !fermata!G2 || %62
[K:G][M:4/4][Q:1/4=55]"^\n"!mp! z/ B/d/B/ z/ B/d/B/ z/ B/e/B/ z/ B/e/B/ | %63
 z/ B/f/B/ z/ B/f/B/ z/ B/e/B/ z/ B/e/B/ | z/ c/e/c/ z/ c/e/c/ z/ c/e/c/ z/ c/e/c/ | %65
 z/ B/d/B/ z/ B/d/B/ z/ B/d/B/ z/ B/d/B/ | z/ A/c/A/ z/ A/c/A/ z/ A/c/A/ z/ A/c/A/ | %67
 z/ B/d/B/ z/ B/d/B/ z!mf! !4!AFE | F2 B4 (3B,/C/E/(3B/c/e/ | b4- ba=d'b | b2 a2 g2 a2 | e4- edgf | %72
 e!<(!Bde!f! !fermata!f2!>(! e2!<)!!>)! | f4 e2 d2- |!pp! !fermata!d8 |] %75
V:2
!mp! (B,DB,D) (B,EB,E) | (B,DB,D) (B,EB,E) | (EGEG) (EGEG) | (DFDF) (DFDF) | (CECE) (CECE) | %5
 (B,DB,D) C"^rit."EDC | B,4 z4 |"^a tempo" (EGEG) (ECEC) | (B,CA,C) (G,CA,C) | %9
!<(! B, B,2 B,- B, C3!<)! | !fermata!B,2 B,2 D4 | C2 (3(CB,A,) !fermata!B,4 |[M:2/4] B, z DF | %13
[M:4/4]!pp! d d2 d2 d2 (d | B) B2 B2 B2 B- | B B2 B2 B2 (B | G) G2 (G F) F2 F | F F2 F2 F2 F | %18
 F2 E2 z A,EA, |[M:2/4] B,2 !fermata!A,2 ||[M:4/4]!pp! B B2 B2 B2 (B | G) G2 G2 G2 G- | %22
 G G2 G2 G2 (G | E) E2 E D D2 D- | D D2 D2 D2 D | ^C2 z2 z A,B,C |[M:2/4] B,2 !fermata!A,2 | %27
[M:4/4]!mf! D2"_meno mosso" C3 _B,CD |[M:2/4] =B,2 !fermata!C2 |[M:4/4]!p! (B,DB,D) (B,EB,E) | %30
 (B,DB,D) (B,DB,D) | (B,EB,E) (CECE) | (A,DA,D) (B,DB,D) | (G,CG,C) (A,CA,C) | (B,DB,D C)AFE | %35
 F2 z4 z2 |!mp! C C2 C2 C E2 | C C2 C2 C2 (C | B,) B,2 B,2 C2 C |[M:2/4] EB, DE |[M:4/4] F4 E4 | %41
!f! F4 E2 !fermata!D2 ||[K:Bb] z8 | z4 CFCA, | (3C!<(!FA !4!A2!mf! z!<(! CFA!<)!!<)! | %45
 !4!A3!f! A!>(! G3 z!>)! |!mp! GdcB GBAG |!>(! (3FCF G,2!mp! FAFD!>)! | %48
!<(! (3FAd d2!mf! z!<(! FAd!<)!!<)! | d3!f! c!>(! BA_AG!>)! | F=E_ED C4- | %51
[M:2/4]"_rit."!p! C2 !fermata!B,2 |[M:4/4] z8 | z4 CFCA, | (3C!<(!FA !4!A2-!mf! A!<(!CFA!<)!!<)! | %55
 !4!A3!f! A!>(! G3 z!>)! |!mp! GdcB GBAG |!>(! (3FCF G,2!mp! FAFD!>)! | %58
!<(! (3FAd d2-!mf! d!<(!FAd!<)!!<)! | d3!f! c!>(! BA_AG!>)! |!>(! F=E_ED C4-!>)! | %61
[M:2/4]"_rit."!p! C2 !fermata!B,2 ||[K:G][M:4/4]!mf! G4- GAFE | D2 EF- FE E2 | B4- BcAG | %65
 F2 GA- ABGF | E2 FG- GAFE | F6 DC | D4 z4 |!mp! C C2 C2 (C G2) | C C2 C2 C2 (C | E) E2 E2 z D2 | %72
 B,2!<(! B2!f! !fermata!d2!>(! (3cBA!<)!!>)! | B8- |!pp! !fermata!B8 |] %75
V:3
!p! D,4 E,4 | B,4 D,4 | C8- | C4 F,4 | B,4 C4 | D4 C"^rit."CB,F, | F,4 z4 |"^a tempo" E,8 | F,8 | %9
!<(! E,4 E,D,G,F,!<)! | !fermata!E,2 z2 ^G,4 | F,4 !fermata!D,4 |[M:2/4] D, z z2 | %13
[M:4/4]!pp! B B2 B2 B2 (B | G) G2 G2 G2 G- | G G2 G2 G2 (G | E) E2 (E !4!D) D2 (D | D) D2 D2 D2 D | %18
 !4!G,4 z F, G,2 |[M:2/4] E,2 !fermata!F,2 ||[M:4/4]!mf! F2 G2- GFGA | D2 ^C6 | D2 E2- EDEF | %23
 B,2 A,2 F,4 | A,2 B,2- B,A,B,^C | F,2 E,2 z D,E,F, |[M:2/4] E,2 !fermata!F,2 | %27
[M:4/4]!mf! ^G,2"_meno mosso" F,3 E,F,^G, |[M:2/4] =F,^F, !fermata!F,2 | %29
[M:4/4]!p! (G,B,G,B,) (G,B,G,B,) | (F,B,F,B,) (G,B,G,B,) | (G,B,G,B,) (G,CG,C) | %32
 (F,A,F,A,) (F,B,F,B,) | (E,G,E,G,) (E,A,E,A,) | (F,B,F,B, A,)EDC | D2 B4 (3A,/B,/C/(3E/F/G/ | %36
!mf! B4- BAdB | B2 !4!A2 G2 A2 |!<(! E4- EDGF!<)! |[M:2/4] B,2 B,2 |[M:4/4] ^G,4 C4 | %41
!f! !fermata!B,8 ||[K:Bb] z4!mp! !4!D4 |!>(! (3(CG,C) D, z!mp! A,CA,F,!>)! | %44
!<(! (3A,CF F2!mf! z!<(! A,DF!<)!!<)! | F3!f! !3!F!>(! F3 !2!=E!>)! |!mf! !1!_E z z2 z4 | %47
 z4!mp! !4!DDDG, |!<(! (3DFA B2!mf! z!<(! DFA!<)!!<)! | =E3!f! E!>(! C3 G,!>)! | %50
 F,=E,_E,D, G,2 =E,2 |[M:2/4]"_rit."!p! ^F,2 !fermata!G,2 |[M:4/4] z4!mp! !4!D4 | %53
!>(! (3(CG,C) D, z!mp! A,CA,F,!>)! |!<(! (3A,CF F2-!mf! F!<(!A,DF!<)!!<)! | %55
 F3!f! !3!F!>(! F3 !2!=E!>)! |!mf! !1!_E z z2 z4 | z4!mp! !4!DDDG, | %58
!<(! (3DFA B2-!mf! B!<(!DFA!<)!!<)! | =E3!f! E!>(! C3 G,!>)! |!>(! F,=E,_E,D, G,2 =E,2!>)! | %61
[M:2/4]"_rit."!p! ^F,2 !fermata!G,2 ||[K:G][M:4/4]!mp! B,4 E,2 B,2 | F,2 B,2 G,2 B,2 | %64
 E,2 G,2 C,2 C2 | D,2 D2 B,2 B,2 | C,2 C2 E,2 A,2 | B,4 C2 B,A, | B,4 z4 |!mf! B,4- B,A,DB, | %70
 B,2 A,2 G,2 A,2 | B, B,2 B,2 z C2 |!<(! E,2 DE!f! !fermata!^G2!>(! F2!<)!!>)! | F8- | %74
!pp! !fermata!F8 |] %75
V:4
!p! G,,4 C,,4 | D,,4 E,,4 | A,,8 | D,4 G,,4 | C,4 F,,4 | B,,4 F,,"^rit.\n"F,,G,,A,, | D,4 z4 | %7
"^a tempo" !tenuto!A,,8 | D,,4 A,,4 |!<(! E,,4 E,,D,,G,,F,,!<)! | !fermata!E,,2 z2 !tenuto!B,,4 | %11
 A,,4 !fermata!F,,4 |[M:2/4] F,, z z2 |[M:4/4]!mp! A,2 G,2- G,A,G,F, | E,4- E,E,B,,E, | %15
 F,2 E,2- E,F,E,D, | ^C,8 | ^C,2 B,,2- B,,^C,B,,A,, | E,,2 A,,2 z D,A,,D,, | %19
[M:2/4] A,,2 !fermata!D,2 ||[M:4/4]!mp! A,2 G,2- G,A,G,F, | E,4- E,E,B,,E, | F,2 E,2- E,F,E,D, | %23
 ^C,4 D,2 ^C,2 | ^C,2 B,,2- B,,C,B,,A,, | ^G,,2 =G,,2 z F,,G,,^G,, |[M:2/4] A,,2 !fermata!D,2 | %27
[M:4/4]!mf! E,,2"_meno mosso" D,,3 C,,D,,E,, |[M:2/4] [G,,D,]2 !fermata![D,,A,,]2 | %29
[M:4/4]!p! G,,2 G,,2 C,,2 C,,2 | D,,2 D,,2 E,,2 E,,2 | C,2 C,2 A,,2 A,,2 | B,,2 B,,2 G,,2 G,,2 | %33
 A,,2 A,,2 F,,2 F,,2 | B,,2 B,,2 F,,2 B,,D, | B,,2 z4 z2 |!mp! A,,8 | D,,8 | %38
!<(! E,,4- E,,D,,G,,F,,!<)! |[M:2/4] E,,2 z2 |[M:4/4] E,,4 D,,4 |!f! !fermata!G,,8 ||[K:Bb] z8 | %43
 z2!mp! D,6 |!<(! D,C, =B,,2!mf! z!<(! A,,D,C,!<)!!<)! | =B,,!f! !0!G,,2 G,!>(! C,4!>)! |!mf! z8 | %47
 z4!mp! G,,4 |!<(! (3G,,B,,D, C,,2!mf! z!<(! G,,B,,D,!<)!!<)! | %49
 C,!f! C,,2 C,!>(! B,,A,,_A,,G,,-!>)! | G,, z z2 D,,4 |[M:2/4]"_rit.\n"!p! D,,2 !fermata!G,,2 | %52
[M:4/4] z8 | z2!mp! D,6- |!<(! D,C, =B,,2-!mf! B,,!<(!A,,D,C,!<)!!<)! | %55
 =B,,!f! G,,2 G,,!>(! C,,4!>)! |!mf! z8 | z4!mp! G,,4 | %58
!<(! (3G,,B,,D, C,,2-!mf! C,,!<(!G,,B,,D,!<)!!<)! | C,!f! C,,2 C,!>(! B,,A,,_A,,G,,-!>)! | %60
!>(! G,, z z2 D,,4-!>)! |[M:2/4]"_rit.\n"!p! D,,2 !fermata!G,,2 ||[K:G][M:4/4]!mp! G,,4 C,,4 | %63
 D,,4 E,,4 | C,4 A,,4 | B,,4 G,,4 | A,,4 F,,4 | B,,4 F,,2 G,,B,, | B,,4 z4 |!mp! A,,8 | D,,8 | %71
 E,, B,,2 B,,2 z C,2 | B,,2!<(! z2!f! !fermata!E,,2!>(! D,,2!<)!!>)! | G,,8- |!pp! !fermata!G,,8 |] %75

